X: 161475
T: Pat Kellegher's
T: T\'a na Caimb\'ealaigh ag Teacht
S: B.Breathnach: "Ceol Rince na hEireann" II/95 
Z: B.Black
L: 1/8
M: 9/8
R: slipjig
K: G
GAB GAB EED/E/|GAB d2d edB|
GAB GAB EEE|Bee e2B dBA :|
Bee e2f ggf/g/|Bee e2B dBA|
Bee e2f gfg|agf gfe dBA :|
